X: 272
T: Jianjian hau
%%abc-version 2.0
%%abcx-abcm2ps-target-version 5.9.1 (29 Sep 2008)
%%abc-creator hum2abc beta
%%abcx-conversion-date 2013/10/02 07:52:29
%%abc-edited-by Helmut Schaffrath
%%humdrum-veritas 640577901
%%humdrum-veritas-data 3100762311
%%continueall 1
%%barnumbers 0
L: 1/8
M: 2/4
K: F
c> df2 [I:setbarnb 1]| 
g e d c | 
d B A G | 
c4 | 
c> df2 | 
g e d c | 
d B A G | 
c4 | 
c> df2 | 
g e d c | 
A> c d f | 
c d B A | 
G> A c f | 
d c A G | 
A B A G | 
F4 | 
d> c d f | 
c d B A | 
G> A c f | 
d c A G | 
A B A G | 
F2z2 |]  



